!!!COM: Palestrina, Giovanni Perluigi da
!!!OPR: Missa O sacrum convivium
!!!OMD: Sanctus
!!!OTL: Hosanna
**kern	**kern	**kern	**kern	**kern
*Ibass	*Itenor	*Itenor	*Icalto	*Icant
!Bassus	!Tenor 2	!Tenor 1	!Altus	!Cantus
*clefF4	*clefGv2	*clefGv2	*clefG2	*clefG2
*k[b-]	*k[b-]	*k[b-]	*k[b-]	*k[b-]
*F:ion	*F:ion	*F:ion	*F:ion	*F:ion
*M4/2	*M4/2	*M4/2	*M4/2	*M4/2
=71	=71	=71	=71	=71
1r	0r	0c	0r	0r
[1F	.	.	.	.
=72	=72	=72	=72	=72
1F]	0r	1d	0r	0r
1G	.	[1e	.	.
=73	=73	=73	=73	=73
1A	0c	2e]	0r	0r
.	.	2c	.	.
1F	.	2.f	.	.
.	.	4e	.	.
=74	=74	=74	=74	=74
0B-	2.d	2d	0f	1r
.	.	4B-	.	.
.	4e	4c	.	.
.	2f	4d	.	[1b-
.	.	4e	.	.
.	[2d	[2f	.	.
=75	=75	=75	=75	=75
1G	2d]	4f]	1g	1b-]
.	.	4e	.	.
.	4c	4e	.	.
.	4B-	4d	.	.
1F	4A	1f	1a	1cc
.	4G	.	.	.
.	2A	.	.	.
=76	=76	=76	=76	=76
2r	2B-	1d	2f	1dd
2B-	2G	.	2.g	.
2G	2d	1r	.	2b-
.	.	.	4f	.
[2A	4c	.	4e	[2cc
.	4B-	.	4d	.
=77	=77	=77	=77	=77
4A]	1A	1r	2e	4cc]
4G	.	.	.	4b-
4F	.	.	2.f	4a
4E	.	.	.	4g
2D	1F	1f	.	4a
.	.	.	4e	4b-
2A	.	.	4d	[2cc
.	.	.	4c	.
=78	=78	=78	=78	=78
1G	0r	1g	1d	2cc]
.	.	.	.	2b
2.F	.	1a	2.f	2cc
.	.	.	.	2cc
4E	.	.	4g	.
=79	=79	=79	=79	=79
2D	0r	2f	2a	1dd
2G	.	2.g	2b	.
1C	.	.	2cc	2ee
.	.	4f	.	.
.	.	4e	[2cc	4gg
.	.	4d	.	4ff
=80	=80	=80	=80	=80
0r	1r	2e	4cc]	4ee
.	.	.	4b-	4dd
.	.	2.f	2.a	4cc
.	.	.	.	4b-
.	[1f	.	.	[1a
.	.	4e	4g	.
.	.	4d	4f	.
.	.	4c	4e	.
=81	=81	=81	=81	=81
0r	1f]	1d	4d	2a]
.	.	.	4e	.
.	.	.	1f	2b-
.	1g	1c	.	1cc
.	.	.	2e	.
=82	=82	=82	=82	=82
0F	1a	2r	2.f	1cc
.	.	1c	.	.
.	.	.	4g	.
.	2.f	.	1a	2r
.	.	[2d	.	2a
.	4e	.	.	.
=83	=83	=83	=83	=83
1G	2d	2d]	1g	1b-
.	4g	1e	.	.
.	4f	.	.	.
1A	4e	.	1c	2.cc
.	4d	.	.	.
.	2e	2c	.	.
.	.	.	.	4b-
=84	=84	=84	=84	=84
2F	4f	4d	0r	2a
.	4e	4c	.	.
2.G	4d	4B-	.	2b-
.	4c	4A	.	.
.	2d	2B-	.	1g
4F	.	.	.	.
4E	[2e	[2c	.	.
4D	.	.	.	.
=85	=85	=85	=85	=85
2E	4e]	4c]	1r	2.cc
.	4d	4B-	.	.
2.F	4c	4A	.	.
.	4B-	4G	.	8dd
.	.	.	.	8ee
.	1A	4A	[1f	[1ff
4E	.	4B-	.	.
4D	.	[2c	.	.
4C	.	.	.	.
=86	=86	=86	=86	=86
1D	1F	4c]	1f]	1ff]
.	.	4B	.	.
.	.	4B	.	.
.	.	4A	.	.
2C	1r	1c	1g	2.ee
[2c	.	.	.	.
.	.	.	.	4dd
=87	=87	=87	=87	=87
4c]	1r	4F	2a	1cc
4B-	.	4G	.	.
4A	.	4A	4cc	.
4G	.	4B-	4b-	.
2A	[1f	2c	4a	1r
.	.	.	4g	.
[2B-	.	[2d	4f	.
.	.	.	4e	.
=88	=88	=88	=88	=88
2B-]	1f]	2d]	2d	0b-
2A	.	2c	2.f	.
1G	1g	1B-	.	.
.	.	.	4e	.
.	.	.	4e	.
.	.	.	4d	.
=89	=89	=89	=89	=89
1F	1a	2r	1f	1cc
.	.	2A	.	.
1r	2f	1B-	[1d	1dd
.	[2g	.	.	.
=90	=90	=90	=90	=90
0r	4g]	2G	2d]	2b-
.	4f	.	.	.
.	4e	1A	2c	2.cc
.	4d	.	.	.
.	2e	.	1r	.
.	.	.	.	4b-
.	[2f	[2d	.	4a
.	.	.	.	4g
=91	=91	=91	=91	=91
0r	4f]	4d]	0r	2a
.	4e	4c	.	.
.	4d	4B-	.	2.b-
.	4c	4A	.	.
.	1d	4G	.	.
.	.	4F	.	4a
.	.	[2f	.	4g
.	.	.	.	4f
=92	=92	=92	=92	=92
1r	1c	2f]	2r	1g
.	.	2e	2g	.
[1F	2r	1f	2a	2.f
.	[2c	.	2a	.
.	.	.	.	4g
=93	=93	=93	=93	=93
1F]	2c]	1r	1f	1a
.	1d	.	.	.
1G	.	1B-	2d	1g
.	[2e	.	4g	.
.	.	.	4f	.
=94	=94	=94	=94	=94
1A	2e]	1c	4e	2r
.	.	.	4d	.
.	2c	.	2e	2cc
2F	4f	1d	4d	2a
.	4e	.	4c	.
[2G	4d	.	4B-	[2b-
.	4c	.	4A	.
=95	=95	=95	=95	=95
4G]	2d	2B-	1G	4b-]
4F	.	.	.	4a
4E	1e	2.c	.	4g
4D	.	.	.	4f
2E	.	.	1c	2g
.	.	4B-	.	.
[2F	[2c	4A	.	[2a
.	.	4G	.	.
=96	=96	=96	=96	=96
4F]	2c]	2A	2.f	2a]
4E	.	.	.	.
4D	1d	2.B-	.	2f
4C	.	.	4e	.
1D	.	.	2d	1f
.	.	4A	.	.
.	2B-	4G	[2f	.
.	.	4F	.	.
=97	=97	=97	=97	=97
0C	0c	0G	2f]	2.cc
.	.	.	4e	.
.	.	.	4d	8b-
.	.	.	.	8a
.	.	.	1e	1g
=98	=98	=98	=98	=98
0F	0c	0F	0f	0a
==	==	==	==	==
*-	*-	*-	*-	*-
!!!CDT: 1525/^1526/-1594/2/2
!!!OCY: Italia
!!!AGN: Mass (Parody)
!!!AST: renaissance, vocal
!!!ASW: Motet (Morales)
!!!PWK: Masses, Book 8
!!!RNB: Cadence finals: C
!!!YOR: Le Opere Complete, v. 24, p. 227
!!!YOO: Rome, Italy: Fratelli Scalera
!!!END: 1992//
!!!EED: John Miller
!!!YEC: Copyright 2000, John Miller
!!!YEN: United States of America
!!!YEM: Rights to all derivative electronic formats reserved.
!!!YEM: Refer to licensing agreement for further details.
!!!YEM: This file must be accompanied by the licensing agreement.
!!!YEM: A copy of the licensing agreement may be found at http://www.music-cog.ohio-state.edu/HumdrumDatabases/Palestrina/license.txt
!!!EMD: converted to Humdrum by Bret Aarden
